static/logos/readymag-wordmark-color.svg

<svg width="100" height="24" viewBox="0 0 100 24" fill="none" xmlns="http://www.w3.org/2000/svg">
<g clip-path="url(#clip0_1_1316)">
<path d="M6.64495 6.90492C6.77273 6.95404 6.81818 7.24962 6.81818 8.03119V9.09091H6.00366C4.79937 9.09091 3.96275 9.30846 3.45581 9.75354C2.60051 10.5045 2.59508 10.5328 2.52525 14.5833L2.46212 18.2449L1.23106 18.2811L0 18.3172V12.6308V6.94444H1.13485H2.2697L2.34773 7.43207C2.48258 8.27513 2.58295 8.32424 3.11982 7.80972C3.66086 7.29129 4.19091 6.99621 4.88864 6.825C5.33763 6.7149 6.25884 6.75682 6.64495 6.90492Z" fill="black"/>
<path fill-rule="evenodd" clip-rule="evenodd" d="M14.3281 6.96983C15.3979 7.23965 16.4261 7.95948 17.1857 8.97034C17.9566 9.99635 18.4627 11.9587 18.1785 12.82L18.034 13.2576H13.7348H9.43543L9.51838 13.7759C9.7699 15.3487 11.1364 16.3475 13.0031 16.3226C14.0824 16.3082 14.7856 16.0114 15.4037 15.3091L15.9063 14.7383L16.8536 15.1513C17.3747 15.3785 17.8011 15.6359 17.8011 15.7231C17.8011 15.9826 16.7117 17.1153 16.0599 17.5335C13.1075 19.428 9.13101 18.398 7.63114 15.3504C6.5199 13.0921 6.88694 10.2484 8.5079 8.55645C10.0046 6.99445 12.129 6.41529 14.3281 6.96983ZM9.72659 10.7789C10.0545 9.9163 10.7837 9.27122 11.7328 9.0038C13.3166 8.55758 15.2781 9.45089 15.5975 10.7639L15.682 11.1111H12.6411H9.60033L9.72659 10.7789Z" fill="black"/>
<path fill-rule="evenodd" clip-rule="evenodd" d="M26.7299 7.01868C27.09 7.11805 27.6419 7.39557 27.9563 7.6356C28.2707 7.87562 28.551 8.03131 28.5791 7.98168C28.6074 7.93206 28.6998 7.67626 28.7847 7.41312L28.9388 6.93497L30.0323 6.9712L31.1257 7.00757V12.6263V18.2449L30.0246 18.2814L28.9233 18.3178L28.8391 17.9658C28.6488 17.1701 28.5739 17.1304 28.0526 17.5494C27.3168 18.1406 26.2489 18.4659 25.0651 18.4593C21.7078 18.4408 19.1767 15.9691 19.1564 12.6894C19.144 10.68 19.9002 9.11994 21.4513 7.95441C22.9356 6.83913 24.8496 6.49987 26.7299 7.01868ZM22.7087 9.81679C23.2481 9.31237 23.5998 9.12878 24.4338 8.91691C24.5727 8.88168 25.0289 8.87045 25.4476 8.89191C26.7515 8.95896 27.8753 9.70391 28.5102 10.9217C28.9517 11.7686 28.9872 13.2775 28.5861 14.1478C27.9426 15.5441 26.8058 16.2879 25.3154 16.2879C24.0904 16.2879 23.3145 16.0013 22.5969 15.2838C21.8882 14.5751 21.5929 13.7881 21.5929 12.6085C21.5929 11.4124 21.9452 10.5309 22.7087 9.81679Z" fill="black"/>
<path fill-rule="evenodd" clip-rule="evenodd" d="M44.5379 9.12247L44.5055 18.2449L43.4243 18.2811L42.3431 18.3172L42.1617 17.7429L41.9802 17.1686L41.3513 17.617C39.7789 18.7383 37.2129 18.7482 35.3227 17.6404C34.5999 17.2169 33.5581 16.0992 33.1675 15.3284C32.7061 14.4178 32.5516 13.7197 32.5547 12.5606C32.5597 10.8183 33.1267 9.53598 34.4323 8.31528C35.3686 7.43977 36.2796 7.02651 37.7246 6.82197C39.0438 6.6351 40.91 7.07752 41.4858 7.71364C42.0242 8.30859 42.0434 8.17967 42.0434 3.97727V0H43.3069H44.5703L44.5379 9.12247ZM35.3761 10.7841C35.8862 9.81402 36.5879 9.25846 37.6873 8.95417C38.28 8.79015 39.5402 8.90669 40.166 9.18359C40.865 9.4928 41.5627 10.1929 41.9449 10.9688C42.1768 11.4394 42.2324 11.7617 42.231 12.6263C42.2295 13.5417 42.1801 13.7923 41.895 14.3308C41.1991 15.6456 40.1573 16.2806 38.6883 16.2851C37.0573 16.2902 36.0204 15.7047 35.3911 14.423C35.081 13.7917 35.0359 13.5548 35.0369 12.5631C35.0379 11.5766 35.0826 11.342 35.3761 10.7841Z" fill="black"/>
<path d="M49.3247 10.6692C50.1021 12.6831 50.7875 14.4101 50.8478 14.5071C50.9231 14.628 51.4291 13.4672 52.4577 10.8139L53.9577 6.94445H55.1334H56.3092L56.0589 7.60733C55.9213 7.97185 54.5113 11.5941 52.9256 15.6566L50.0423 23.0429L48.8685 23.0794C47.792 23.1129 47.7001 23.0972 47.7587 22.89C47.7939 22.7658 48.2272 21.6246 48.7217 20.3542C49.2163 19.0837 49.6205 17.9758 49.6203 17.892C49.6198 17.7701 48.1365 13.9797 45.5689 7.53977L45.3281 6.93561L46.6198 6.97159L47.9115 7.00758L49.3247 10.6692Z" fill="black"/>
<path d="M64.3698 7.02487C64.8803 7.16503 65.2117 7.37399 65.7494 7.89482L66.4572 8.5803L67.1279 7.94583C68.1783 6.95253 69.2703 6.61503 70.754 6.82513C72.2617 7.03864 73.3134 7.79103 73.9117 9.08447C74.163 9.6274 74.1798 9.89798 74.2168 13.9883L74.2559 18.3174L73.0173 18.2812L71.7786 18.2449L71.7155 14.1355C71.6596 10.4929 71.6271 9.98763 71.4303 9.68737C70.9975 9.02765 70.022 8.73485 69.0405 8.97033C68.2188 9.16742 67.2615 10.0484 67.0571 10.7955C66.9726 11.1044 66.9187 12.6626 66.9183 14.8088L66.9175 18.3172L65.6865 18.2811L64.4554 18.2449L64.3923 14.1355C64.3363 10.4929 64.3039 9.98763 64.1071 9.68737C63.3917 8.59672 61.4149 8.65934 60.3252 9.8072C59.6576 10.5105 59.5943 10.9413 59.5943 14.7886V18.3081H58.3948H57.1953V12.6213V6.9346L58.2987 6.97109C59.2866 7.00379 59.4071 7.03396 59.4502 7.2601C59.4768 7.39899 59.5505 7.64962 59.6141 7.81705L59.7298 8.12146L60.1355 7.7375C61.1571 6.77083 62.5744 6.53232 64.3698 7.02487Z" fill="black"/>
<path fill-rule="evenodd" clip-rule="evenodd" d="M82.9901 7.03019C83.3226 7.13474 83.8767 7.41024 84.2215 7.64231L84.8483 8.06415L84.9893 7.50431L85.1303 6.94446H86.2517H87.3731V12.6312V18.3179L86.2683 18.2815L85.1635 18.245L84.9953 17.7134L84.827 17.1818L84.1905 17.6197C82.596 18.7164 80.0945 18.7571 78.2979 17.7154C76.9861 16.9548 75.9472 15.6248 75.5666 14.2186C75.2731 13.1342 75.3547 11.4668 75.752 10.4364C76.8125 7.68549 80.1228 6.12754 82.9901 7.03019ZM77.8295 12.1369C78.021 10.5075 78.842 9.49686 80.3655 9.01504C82.0603 8.47905 83.8606 9.24673 84.7016 10.8643C85.1047 11.6398 85.1227 11.7313 85.0723 12.7525C85.013 13.9532 84.7604 14.5881 84.0662 15.2825C83.3845 15.964 82.5376 16.2852 81.4181 16.2866C80.5713 16.2878 80.3524 16.2368 79.6618 15.8775C78.3239 15.1816 77.6366 13.7784 77.8295 12.1369Z" fill="black"/>
<path d="M95.5838 6.82261C96.8152 7.01591 97.8243 7.56364 98.7272 8.52879C99.1511 8.98195 99.4979 9.42336 99.4979 9.50973C99.4979 9.59622 99.0666 9.88031 98.5395 10.1412L97.5809 10.6154L97.0921 10.0601C95.7953 8.58675 93.1675 8.54306 91.8753 9.97336C90.5612 11.4279 90.6133 14.1099 91.9817 15.4388C92.8867 16.3177 94.6669 16.5936 95.9035 16.0466C96.692 15.6977 96.953 15.4614 97.2402 14.8359C97.612 14.0265 97.6002 14.0152 96.3992 14.0152H95.3207L95.3575 13.0366L95.3944 12.0581L97.5665 12.0236L99.7386 11.989L99.8863 12.4822C99.9995 12.8599 99.9989 13.177 99.8843 13.8356C99.6737 15.045 99.1935 15.9777 98.3425 16.8306C95.5732 19.6061 90.6556 18.7664 89.012 15.2374C87.8335 12.7073 88.6097 9.40834 90.7257 7.95253C92.2632 6.89458 93.7859 6.54053 95.5838 6.82261Z" fill="black"/>
</g>
<defs>
<clipPath id="clip0_1_1316">
<rect width="100" height="23.1061" fill="white"/>
</clipPath>
</defs>
</svg>

<svg xmlns="http://www.w3.org/2000/svg" width="266.667" height="64" fill="none" viewBox="0 0 100 24"><g fill="#000" clip-path="url(#a)"><path d="M6.645 6.905c.128.049.173.345.173 1.126v1.06h-.814c-1.205 0-2.041.217-2.548.663-.855.75-.86.779-.93 4.83l-.064 3.66-1.23.037L0 18.317V6.944h2.27l.078.488c.135.843.235.892.772.378.54-.519 1.07-.814 1.769-.985.449-.11 1.37-.068 1.756.08Z"/><path fill-rule="evenodd" d="M14.328 6.97c1.07.27 2.098.99 2.858 2 .77 1.026 1.277 2.989.992 3.85l-.144.438H9.435l.083.518c.252 1.573 1.618 2.572 3.485 2.547 1.08-.015 1.783-.312 2.4-1.014l.503-.57.948.412c.52.228.947.485.947.572 0 .26-1.09 1.392-1.741 1.81-2.952 1.895-6.929.865-8.429-2.183-1.111-2.258-.744-5.102.877-6.794 1.497-1.562 3.621-2.14 5.82-1.586Zm-4.601 3.809c.328-.863 1.057-1.508 2.006-1.775 1.584-.446 3.545.447 3.864 1.76l.085.347H9.6l.127-.332ZM26.73 7.019c.36.1.912.377 1.226.617.315.24.595.395.623.346.028-.05.12-.306.206-.569l.154-.478 1.093.036 1.094.037v11.237l-1.101.036-1.102.037-.084-.352c-.19-.796-.265-.836-.786-.417-.736.592-1.804.917-2.988.91-3.357-.018-5.888-2.49-5.909-5.77-.012-2.009.744-3.57 2.295-4.735C22.936 6.84 24.85 6.5 26.73 7.02Zm-4.021 2.798c.54-.505.89-.688 1.725-.9.139-.035.595-.047 1.014-.025 1.303.067 2.427.812 3.062 2.03.442.847.477 2.355.076 3.226-.643 1.396-1.78 2.14-3.27 2.14-1.226 0-2.002-.287-2.72-1.004-.708-.709-1.003-1.496-1.003-2.676 0-1.196.352-2.077 1.116-2.791ZM44.538 9.122l-.032 9.123-1.082.036-1.08.036-.182-.574-.182-.574-.629.448c-1.572 1.121-4.138 1.131-6.028.023-.723-.423-1.765-1.54-2.156-2.312-.46-.91-.615-1.608-.612-2.767.005-1.743.572-3.025 1.877-4.246.937-.875 1.848-1.288 3.293-1.493 1.319-.187 3.185.256 3.76.892.54.595.558.466.558-3.737V0h2.527l-.032 9.122Zm-9.162 1.662c.51-.97 1.212-1.526 2.311-1.83.593-.164 1.853-.047 2.479.23.699.309 1.397 1.009 1.779 1.785.232.47.287.793.286 1.657-.002.916-.05 1.166-.336 1.705-.696 1.315-1.738 1.95-3.207 1.954-1.63.005-2.668-.58-3.297-1.862-.31-.631-.355-.868-.354-1.86 0-.986.046-1.221.34-1.779Z" clip-rule="evenodd"/><path d="M49.325 10.67c.777 2.013 1.462 3.74 1.523 3.837.075.121.581-1.04 1.61-3.693l1.5-3.87h2.351l-.25.663c-.138.365-1.548 3.987-3.133 8.05l-2.884 7.386-1.174.036c-1.076.034-1.168.018-1.11-.189.036-.124.47-1.265.964-2.536.494-1.27.898-2.378.898-2.462 0-.122-1.483-3.912-4.051-10.352l-.24-.604 1.29.036 1.292.036 1.414 3.661ZM64.37 7.025c.51.14.842.349 1.38.87l.707.685.67-.634c1.051-.993 2.143-1.331 3.627-1.12 1.508.213 2.56.965 3.158 2.258.251.543.268.814.305 4.904l.039 4.33-1.239-.037-1.238-.036-.063-4.11c-.056-3.642-.089-4.147-.286-4.448-.433-.66-1.408-.952-2.39-.717-.821.197-1.779 1.078-1.983 1.825-.084.31-.138 1.868-.139 4.014v3.508l-1.232-.036-1.23-.036-.064-4.11c-.056-3.642-.088-4.147-.285-4.448-.715-1.09-2.692-1.028-3.782.12-.667.704-.73 1.134-.73 4.982v3.52h-2.4V6.934l1.104.036c.988.033 1.108.063 1.151.29.027.138.1.389.164.556l.116.304.406-.384c1.021-.966 2.438-1.205 4.234-.712Z"/><path fill-rule="evenodd" d="M82.99 7.03c.333.105.887.38 1.232.612l.626.422.141-.56.141-.56H87.373v11.374l-1.105-.037-1.105-.036-.168-.532-.168-.531-.636.438c-1.595 1.096-4.097 1.137-5.893.095-1.312-.76-2.35-2.09-2.731-3.496-.294-1.085-.212-2.752.185-3.783 1.06-2.75 4.37-4.308 7.238-3.406Zm-5.16 5.107c.191-1.63 1.012-2.64 2.535-3.122 1.695-.536 3.496.232 4.337 1.85.403.775.42.866.37 1.887-.059 1.201-.312 1.836-1.006 2.53-.681.682-1.528 1.003-2.648 1.005-.847 0-1.066-.05-1.756-.41-1.338-.695-2.025-2.099-1.833-3.74Z" clip-rule="evenodd"/><path d="M95.584 6.823c1.231.193 2.24.74 3.143 1.706.424.453.77.894.77.98 0 .087-.43.371-.957.632l-.96.474-.488-.555c-1.297-1.473-3.924-1.517-5.217-.087-1.314 1.455-1.262 4.137.107 5.466.905.879 2.685 1.155 3.921.608.789-.35 1.05-.586 1.337-1.211.372-.81.36-.82-.84-.82h-1.08l.038-.98.036-.978 2.172-.034 2.173-.035.147.493c.114.378.113.695-.002 1.354-.21 1.209-.69 2.142-1.541 2.995-2.77 2.775-7.687 1.935-9.331-1.594-1.178-2.53-.402-5.829 1.714-7.284 1.537-1.058 3.06-1.412 4.858-1.13Z"/></g><defs><clipPath id="a"><path fill="#fff" d="M0 0h100v23.106H0z"/></clipPath></defs></svg>
